_includes/assets/barber/images/icons/scessior.svg

<?xml version="1.0" encoding="UTF-8"?>
<svg width="75px" height="91px" viewBox="0 0 75 91" version="1.1" xmlns="http://www.w3.org/2000/svg" xmlns:xlink="http://www.w3.org/1999/xlink">
    <!-- Generator: Sketch 52.6 (67491) - http://www.bohemiancoding.com/sketch -->
    <title>scessior</title>
    <desc>Created with Sketch.</desc>
    <g id="Page-1" stroke="none" stroke-width="1" fill="none" fill-rule="evenodd">
        <g id="scessior" fill="#AAAC4C">
            <path d="M36.22,79.91 C30.98,77.91 28.56,71.44 30.83,65.47 C33.1,59.5 39.21,56.28 44.45,58.28 C49.69,60.28 52.11,66.75 49.84,72.72 C47.57,78.69 41.46,81.91 36.22,79.91 Z M43.29,61.36 C39.75,60.01 35.55,62.36 33.92,66.65 C32.29,70.94 33.86,75.48 37.4,76.83 C40.94,78.18 45.14,75.83 46.77,71.54 C48.4,67.25 46.83,62.71 43.28,61.36 L43.29,61.36 Z" id="Shape" fill-rule="nonzero"></path>
            <path d="M3.09,60.63 C-1.09,56.89 -1,50 3.23,45.22 C7.46,40.44 14.35,39.64 18.53,43.38 C22.71,47.12 22.65,54 18.39,58.79 C14.13,63.58 7.27,64.37 3.09,60.63 Z M16.33,45.84 C13.51,43.31 8.73,44 5.69,47.42 C2.65,50.84 2.47,55.64 5.29,58.17 C8.11,60.7 12.89,59.99 15.93,56.59 C18.97,53.19 19.16,48.37 16.33,45.84 Z" id="Shape" fill-rule="nonzero"></path>
            <path d="M21.84,47.55 C25.69,44.45 32.34,41.78 36.59,40.43 C37.1,37.19 35.36,35.09 35.41,33.6 C34.58,34.3 33.84,34.91 33.22,35.4 C24.02,42.68 11.22,41.72 11.22,41.72 L17,44.41 L20,49.33 C20,48.52 15.92,52.31 21.84,47.55 Z" id="Path"></path>
            <path d="M39.07,59.88 L38.44,59.88 C38.6248976,60.0252103 38.8851024,60.0252103 39.07,59.88 Z" id="Path"></path>
            <path d="M49.62,72.63 C47.5505725,75.1020011 46.1035175,78.0338305 45.4,81.18 C44.59,85.83 47.31,90.44 47.31,90.44 L42.31,88.54 L37.91,79.29 L42.65,78.18 L49.62,72.63 Z" id="Path"></path>
            <polygon id="Path" points="19.84 55.57 21.52 57.07 16.55 62.63 14.43 60.74"></polygon>
            <path d="M47.43,38.19 C59.23,29.43 74.33,17 74.33,17 L50.12,26.42 L47.43,38.19 Z" id="Path"></path>
            <path d="M45.37,41.75 C47.61,30.23 55,0 55,0 L36.8,32.21 C36.8,32.21 42.18,45.8 39.8,57.43 C39.58,58.5 39.43,59.29 39.32,59.89 L44.8,60.25 L49.8,64.18 C49.8,64.18 43.13,53.26 45.37,41.75 Z M41.62,33.88 C40.6510546,33.5092399 40.1655954,32.4236619 40.5352495,31.454294 C40.9049036,30.4849261 41.989927,29.9982284 42.9597161,30.3667761 C43.9295052,30.7353237 44.4174407,31.819791 44.05,32.79 C43.8730113,33.25733 43.517246,33.6349661 43.0612931,33.8394882 C42.6053402,34.0440103 42.0867213,34.0585876 41.62,33.88 Z" id="Shape" fill-rule="nonzero"></path>
            <path d="" id="Path"></path>
            <path d="M39.07,59.88 L39.2,59.88 C39.1625776,59.8479912 39.1074224,59.8479912 39.07,59.88 Z" id="Path"></path>
            <path d="M39.28,60.17 L39.33,59.89 L39.2,59.89 C39.256285,59.9722072 39.284359,60.070466 39.28,60.17 Z" id="Path"></path>
        </g>
    </g>
</svg>

<svg xmlns="http://www.w3.org/2000/svg" viewBox="0 0 74.33 90.45"><defs><style>.cls-1{fill:#bd9254;}</style></defs><title>scessior</title><g id="Layer_2" data-name="Layer 2"><g id="_1" data-name=" 1"><path class="cls-1" d="M36.22,79.91c-5.24-2-7.66-8.47-5.39-14.44s8.38-9.19,13.62-7.19,7.66,8.47,5.39,14.44S41.46,81.91,36.22,79.91Zm7.07-18.55c-3.54-1.35-7.74,1-9.37,5.29s-.06,8.83,3.48,10.18,7.74-1,9.37-5.29S46.83,62.71,43.28,61.36Z"/><path class="cls-1" d="M3.09,60.63C-1.09,56.89-1,50,3.23,45.22s11.12-5.58,15.3-1.84S22.65,54,18.39,58.79,7.27,64.37,3.09,60.63ZM16.33,45.84C13.51,43.31,8.73,44,5.69,47.42s-3.22,8.22-.4,10.75,7.6,1.82,10.64-1.58S19.16,48.37,16.33,45.84Z"/><path class="cls-1" d="M21.84,47.55c3.85-3.1,10.5-5.77,14.75-7.12.51-3.24-1.23-5.34-1.18-6.83-.83.7-1.57,1.31-2.19,1.8-9.2,7.28-22,6.32-22,6.32L17,44.41l3,4.92C20,48.52,15.92,52.31,21.84,47.55Z"/><path class="cls-1" d="M39.07,59.88l-.63,0A.51.51,0,0,0,39.07,59.88Z"/><path class="cls-1" d="M49.62,72.63a20.18,20.18,0,0,0-4.22,8.55c-.81,4.65,1.91,9.26,1.91,9.26l-5-1.9-4.4-9.25,4.74-1.11Z"/><polygon class="cls-1" points="19.84 55.57 21.52 57.07 16.55 62.63 14.43 60.74 19.84 55.57"/><path class="cls-1" d="M47.43,38.19C59.23,29.43,74.33,17,74.33,17L50.12,26.42Z"/><path class="cls-1" d="M45.37,41.75C47.61,30.23,55,0,55,0L36.8,32.21s5.38,13.59,3,25.22c-.22,1.07-.37,1.86-.48,2.46l5.48.36,5,3.93S43.13,53.26,45.37,41.75Zm-3.75-7.87a1.88,1.88,0,1,1,2.43-1.09A1.88,1.88,0,0,1,41.62,33.88Z"/><path class="cls-1" d="M39.28,60.17c-.42,2.34,0,.74,0,0Z"/><path class="cls-1" d="M39.07,59.88h.13A.1.1,0,0,0,39.07,59.88Z"/><path class="cls-1" d="M39.28,60.17l.05-.28H39.2A.46.46,0,0,1,39.28,60.17Z"/></g></g></svg>
